X: 42
T:Oak Tree
R:Reel
Z:Added by Alf Warnock
M:4/4
L:1/8
K:D
AG|:FDAD FDAD|FDAF GEFD|A,2A,G, A,2A,G,|A,G,A,B, =CDEG|
FDAD FDAD|FAAF GFED|Bdef gece|[1 d2dc d2AG:|[2 d2dc d2eg|
|:fBB2 fa^ge|fece faed|cAA2 fAeA|cAea fece|
fBB2 fa^ge|fece faec|ABce a^gae|[1 faed cAce:|[2 faed cABc|
|:d2fd d2fd|c2ec c2ec|d2fd d2fg|afge dcBA|
d2fd Adfd|c2ec Acec|d2fd Adfg|[1 afge dcBA:|[2 afge dBAG|

